local/share/icons/dracula-icons-main/scalable/apps/fcitx-sogoupinyin.svg

<?xml version="1.0" encoding="UTF-8"?>
<svg xmlns="http://www.w3.org/2000/svg" xmlns:xlink="http://www.w3.org/1999/xlink" width="64" height="64" viewBox="0 0 64 64">
<defs>
<filter id="filter-remove-color" x="0%" y="0%" width="100%" height="100%">
<feColorMatrix color-interpolation-filters="sRGB" values="0 0 0 0 1 0 0 0 0 1 0 0 0 0 1 0 0 0 1 0" />
</filter>
<mask id="mask-0">
<g filter="url(#filter-remove-color)">
<rect x="-6.4" y="-6.4" width="76.8" height="76.8" fill="rgb(0%, 0%, 0%)" fill-opacity="0.15"/>
</g>
</mask>
<clipPath id="clip-0">
<rect x="0" y="0" width="17" height="17"/>
</clipPath>
<g id="source-2059" clip-path="url(#clip-0)">
<path fill-rule="nonzero" fill="rgb(0%, 0%, 0%)" fill-opacity="1" d="M 4.539062 12.394531 L 3.792969 13.140625 C 5.03125 14.382812 6.710938 15.078125 8.464844 15.082031 C 10.21875 15.078125 11.902344 14.382812 13.140625 13.140625 L 12.394531 12.394531 C 11.351562 13.433594 9.941406 14.023438 8.464844 14.023438 C 6.992188 14.023438 5.582031 13.433594 4.539062 12.394531 Z M 4.539062 12.394531 "/>
</g>
</defs>
<path fill-rule="nonzero" fill="rgb(100%, 46.27451%, 26.27451%)" fill-opacity="1" d="M 15.609375 8.464844 C 15.609375 12.410156 12.410156 15.609375 8.464844 15.609375 C 4.519531 15.609375 1.324219 12.410156 1.324219 8.464844 C 1.324219 4.519531 4.519531 1.324219 8.464844 1.324219 C 12.410156 1.324219 15.609375 4.519531 15.609375 8.464844 Z M 15.609375 8.464844 "/>
<path fill-rule="nonzero" fill="rgb(100%, 100%, 100%)" fill-opacity="1" d="M 8.25 4.230469 C 7.992188 4.234375 7.738281 4.246094 7.574219 4.269531 C 6.824219 4.382812 6.226562 4.644531 5.84375 5.027344 C 5.636719 5.226562 5.492188 5.472656 5.421875 5.746094 C 5.378906 5.921875 5.363281 6.324219 5.410156 6.476562 C 5.566406 7.015625 5.9375 7.429688 6.640625 7.847656 C 6.9375 8.023438 7.167969 8.136719 7.828125 8.4375 C 8.625 8.792969 8.867188 8.9375 8.980469 9.117188 C 9.023438 9.1875 9.039062 9.226562 9.03125 9.3125 C 9.019531 9.453125 8.953125 9.519531 8.789062 9.578125 C 8.683594 9.617188 8.644531 9.628906 8.4375 9.628906 C 8.0625 9.625 7.734375 9.554688 7.273438 9.394531 C 6.957031 9.28125 6.652344 9.132812 6.371094 8.949219 C 6.105469 8.773438 6.082031 8.769531 6.003906 8.8125 C 5.945312 8.84375 5.511719 9.230469 5.195312 9.539062 C 4.984375 9.742188 4.980469 9.785156 5.125 9.925781 C 5.265625 10.066406 5.664062 10.359375 5.882812 10.484375 C 6.121094 10.625 6.277344 10.703125 6.546875 10.800781 C 6.992188 10.96875 7.367188 11.035156 8.074219 11.097656 C 8.234375 11.109375 8.804688 11.113281 9.007812 11.097656 C 10.109375 11.007812 11.007812 10.648438 11.480469 10.121094 C 11.648438 9.933594 11.753906 9.773438 11.832031 9.550781 C 11.910156 9.332031 11.929688 8.902344 11.871094 8.644531 C 11.777344 8.222656 11.523438 7.84375 11.113281 7.519531 C 10.703125 7.199219 10.289062 6.984375 9.289062 6.585938 C 8.59375 6.308594 8.328125 6.160156 8.261719 6.003906 C 8.226562 5.921875 8.246094 5.773438 8.300781 5.71875 C 8.410156 5.605469 8.625 5.566406 8.898438 5.601562 C 9.40625 5.664062 10.0625 5.898438 10.640625 6.21875 C 10.753906 6.28125 10.863281 6.335938 10.886719 6.339844 C 10.980469 6.363281 11.035156 6.324219 11.414062 5.894531 C 11.875 5.363281 11.871094 5.386719 11.617188 5.203125 C 10.855469 4.660156 9.976562 4.34375 8.964844 4.25 C 8.726562 4.230469 8.488281 4.222656 8.25 4.230469 Z M 8.25 4.230469 "/>
<g mask="url(#mask-0)">
<use xlink:href="#source-2059"/>
</g>
</svg>

<svg width="64" height="64" version="1.1" viewBox="0 0 16.933 16.933" xmlns="http://www.w3.org/2000/svg">
 <circle cx="8.4665" cy="8.4665" r="7.1436" fill="#ff7643" style="paint-order:stroke fill markers"/>
 <path d="m8.25 4.23c-0.257 5e-3 -0.51 0.015-0.677 0.04-0.747 0.114-1.346 0.376-1.731 0.758a1.54 1.54 0 0 0-0.42 0.72c-0.045 0.174-0.06 0.575-0.013 0.728 0.157 0.54 0.53 0.954 1.23 1.37 0.298 0.176 0.528 0.292 1.19 0.591 0.795 0.357 1.037 0.501 1.15 0.68 0.044 0.072 0.06 0.11 0.054 0.197-0.012 0.138-0.081 0.207-0.243 0.266-0.108 0.038-0.147 0.05-0.352 0.05-0.375-4e-3 -0.705-0.074-1.163-0.237a4.232 4.232 0 0 1-0.905-0.444c-0.266-0.174-0.287-0.18-0.366-0.138-0.059 0.033-0.491 0.418-0.81 0.73-0.209 0.203-0.212 0.244-0.068 0.384 0.141 0.14 0.539 0.435 0.757 0.561 0.237 0.14 0.395 0.217 0.662 0.316 0.448 0.166 0.824 0.235 1.528 0.295 0.16 0.013 0.732 0.015 0.933 0 1.102-0.088 2.001-0.448 2.474-0.975 0.17-0.187 0.272-0.348 0.352-0.572 0.078-0.218 0.098-0.646 0.04-0.906-0.094-0.421-0.348-0.802-0.757-1.123-0.41-0.322-0.826-0.536-1.825-0.936-0.698-0.278-0.96-0.426-1.028-0.581-0.037-0.083-0.015-0.23 0.04-0.286 0.11-0.111 0.322-0.151 0.596-0.118 0.51 0.063 1.166 0.297 1.744 0.62 0.112 0.062 0.22 0.114 0.244 0.119 0.093 0.024 0.15-0.013 0.527-0.444 0.463-0.53 0.458-0.509 0.203-0.69-0.76-0.544-1.64-0.86-2.65-0.955a7.062 7.062 0 0 0-0.717-0.02z" fill="#fff"/>
 <path d="m4.5402 12.393-0.74774 0.74774a6.6145 6.6145 0 0 0 4.674 1.9404 6.6145 6.6145 0 0 0 4.674-1.9404l-0.74774-0.74774a5.5561 5.5561 0 0 1-3.9263 1.6298 5.5561 5.5561 0 0 1-3.9263-1.6298z" opacity=".15" stroke-width=".92593" style="paint-order:stroke fill markers"/>
</svg>
